src/components/images/github.svg

<?xml version="1.0" encoding="utf-8"?>
<!-- Generator: Adobe Illustrator 22.1.0, SVG Export Plug-In . SVG Version: 6.00 Build 0)  -->
<svg version="1.2" baseProfile="tiny" id="Layer_1" xmlns="http://www.w3.org/2000/svg" xmlns:xlink="http://www.w3.org/1999/xlink"
	 x="0px" y="0px" viewBox="0 0 2350 2314.8" xml:space="preserve">
<path d="M1175,0C525.8,0,0,525.8,0,1175c0,552.2,378.9,1010.5,890.1,1139.7c-5.9-14.7-8.8-35.3-8.8-55.8v-199.8H734.4
	c-79.3,0-152.8-35.2-185.1-99.9c-38.2-70.5-44.1-179.2-141-246.8c-29.4-23.5-5.9-47,26.4-44.1c61.7,17.6,111.6,58.8,158.6,120.4
	c47,61.7,67.6,76.4,155.7,76.4c41.1,0,105.7-2.9,164.5-11.8c32.3-82.3,88.1-155.7,155.7-190.9c-393.6-47-581.6-240.9-581.6-505.3
	c0-114.6,49.9-223.3,132.2-317.3c-26.4-91.1-61.7-279.1,11.8-352.5c176.3,0,282,114.6,308.4,143.9c88.1-29.4,185.1-47,284.9-47
	c102.8,0,196.8,17.6,284.9,47c26.4-29.4,132.2-143.9,308.4-143.9c70.5,70.5,38.2,261.4,8.8,352.5c82.3,91.1,129.3,202.7,129.3,317.3
	c0,264.4-185.1,458.3-575.7,499.4c108.7,55.8,185.1,214.4,185.1,331.9V2256c0,8.8-2.9,17.6-2.9,26.4
	C2021,2123.8,2350,1689.1,2350,1175C2350,525.8,1824.2,0,1175,0L1175,0z"/>
</svg>

<?xml version="1.0" encoding="UTF-8"?>
<svg width="2350px" height="2315px" viewBox="0 0 2350 2315" version="1.1" xmlns="http://www.w3.org/2000/svg" xmlns:xlink="http://www.w3.org/1999/xlink">
    <!-- Generator: Sketch 55.2 (78181) - https://sketchapp.com -->
    <title>Path</title>
    <desc>Created with Sketch.</desc>
    <g id="Page-1" stroke="none" stroke-width="1" fill="none" fill-rule="evenodd">
        <g id="Group" fill="#FFFFFF" fill-rule="nonzero">
            <path d="M1175,0 C525.8,0 0,525.8 0,1175 C0,1727.2 378.9,2185.5 890.1,2314.7 C884.2,2300 881.3,2279.4 881.3,2258.9 L881.3,2059.1 L734.4,2059.1 C655.1,2059.1 581.6,2023.9 549.3,1959.2 C511.1,1888.7 505.2,1780 408.3,1712.4 C378.9,1688.9 402.4,1665.4 434.7,1668.3 C496.4,1685.9 546.3,1727.1 593.3,1788.7 C640.3,1850.4 660.9,1865.1 749,1865.1 C790.1,1865.1 854.7,1862.2 913.5,1853.3 C945.8,1771 1001.6,1697.6 1069.2,1662.4 C675.6,1615.4 487.6,1421.5 487.6,1157.1 C487.6,1042.5 537.5,933.8 619.8,839.8 C593.4,748.7 558.1,560.7 631.6,487.3 C807.9,487.3 913.6,601.9 940,631.2 C1028.1,601.8 1125.1,584.2 1224.9,584.2 C1327.7,584.2 1421.7,601.8 1509.8,631.2 C1536.2,601.8 1642,487.3 1818.2,487.3 C1888.7,557.8 1856.4,748.7 1827,839.8 C1909.3,930.9 1956.3,1042.5 1956.3,1157.1 C1956.3,1421.5 1771.2,1615.4 1380.6,1656.5 C1489.3,1712.3 1565.7,1870.9 1565.7,1988.4 L1565.7,2256 C1565.7,2264.8 1562.8,2273.6 1562.8,2282.4 C2021,2123.8 2350,1689.1 2350,1175 C2350,525.8 1824.2,0 1175,0 L1175,0 Z" id="Path"></path>
        </g>
    </g>
</svg>
